X:1
T:Title
%%score ( 1 2 ) { 3 | 4 }
L:1/8
Q:1/4=95
M:4/4
K:Eb
V:1 treble nm="Grand Piano, Soprano"
V:2 treble 
V:3 bass nm="Choir Pad, Our Home Bright and Fair"
V:4 bass 
V:1
 E[DF] [EG]2 [EG][EG] [DB]2 | [DF][DG] E4 z2 | [DF]2 [EG]2 [DF]E [EB]2 | [EG]E [DF]4 z2 | %4
w: By~William~Howard~Doane * * * * *||||
 [EG][DA] [EB]2 [EG][DF] E2 | z2 A4 z2 | [Ec][Ec] [EB]2 [EG]E [DF]2 | [DG][DF] E4 z2 | %8
w: ||||
 [GB][GB] [Ac]2 [Ac]>[Bd] [ce]2 | [Bd][Ac] B4 E2 | [EG]2 [DF]2 [DF][EG] [FA]2 | %11
w: |||
 [DB][FA] G4- [GB]2 | [GB][GB] [Ac]2 [Ac]>[Bd] [ce]2 | [Bd][Ac] B4 E2 | z2 F4 z2 | z2 E6- | %16
w: |||||
 E4 z4 |] %17
w: |
V:2
 x8 | x8 | x8 | x8 | x8 | [DF][EG] E4- [Ec]2 | x8 | x8 | x8 | z2 G6 | x8 | z2 E4 z2 | x8 | z2 G6 | %14
 [EG][B,E] D4- [DB]2 | [EG][DF] B,2 CC B,2- | B,4 z4 |] %17
V:3
 G,A, B,2 B,B, A,2 | A,A, G,4 z2 | B,2 B,2 A,G, G,2 | B,B, B,4 z2 | B,B, B,2 B,A, G,2 | %5
 B,B, C4 A,2 | A,A, G,2 B,G, A,2 | B,A, G,4 z2 | EE E2 E>D C2 | DE E2 EE[K:bass] B,2 | %10
 B,2 B,2 B,B, B,2 | B,B, B,6 | EE E2 E>D C2 | DE E2 EE[K:bass] B,2 | B,G, B,2 B,B, F,2 | %15
 B,A, G,2 A,A, G,2- | G,4 z4 |] %17
V:4
 E,E, E,2 E,E, B,,2 | B,,B,, E,4 z2 | B,,2 E,2 E,E, E,2 | E,G, z2 z4 | E,F, G,2 B,,B,, C,2 | %5
 B,,E, A,,6 | A,,A,, B,,2 B,,B,, B,,2 | B,,B,, E,4 z2 | E,E, A,2 A,>A, A,2 | A,A, E,2 E,E, E,2 | %10
 E,2 B,,2 B,,B,, B,,2 | B,,B,, E,6 | E,E, A,2 A,>A, A,2 | A,A, E,2 E,E, E,2 | %14
 E,E, B,,2 B,,B,, B,,2 | B,,B,, E,6- | E,4 z4 |] %17

